X:5698
T:Rufty Tufty
O:England
M: C|
L: 1/4
Q:200
F:http://trillian.mit.edu/~jc/music/abc/England/tune/RuftyTufty.abc	 2003-05-28 00:19:16 UT
K: G
|: "D (Bm)"d2 de | "(F#m)"f2 ef | "G"gg "A"f> e |1 "D"d4 :|2 "D"d3 e/2f/2|
|: "G"gf ed |dc B>c | dd "C"cB |1 "D"A2 "G"G e/f/ :|2 "D"A2 G2||
|: "G"B>c dd | "C"ec "G"d2 | B>c dd | "C"ec "G"dB/2c/2 | dd "C"cB | "D"A2 "G"G2 :|


